X: 1
M: 3/4
L: 1/8
K: Gm
|: "Gm"G^F GA B2 | "D7"AG ^FA c2 | "Gm"BA GA BG | "D7"A2 D2 D2 \
|  "Gm"G^F GA B2 | "D7"AG ^FA c2 | BA GB A^F | "Gm"G4 z2 :|
Bc \
|: "Bb"d2 Bc Bc | d2 (3edc d2 | "F7"c2 FA FA | c2 (3dcB c2 \
| "Eb"B2 EG EG | B4 G2 | "F7"F2 EG FE | "Bb"D4 B,2 ||
|| "Bb"d2 Bc Bc | d2 (3edc d2 | "F7"c2 FA FA | "D7"c2 (3dcB c2 \
| "Gm"G2 G^F GA | B2 d2 B2  | "D7"A2 D^F AF | "Gm"G4 z2 :|
|: "Gm"g2 g^f ga | b2 ba g2 | "D7"^f2 fg ab | "Gm"g4 d2 \
| "Cm"e2 ed c2 | "Gm"d2 dc B2 | "D7"AB cB A^F |1,3 "Gm"G4 d2 :|2,4 "Gm"G4 z2 :|
